billpay/health.svg

<svg width="48" height="48" viewBox="0 0 48 48" fill="none" xmlns="http://www.w3.org/2000/svg">
<mask id="mask0_3027_21326" style="mask-type:alpha" maskUnits="userSpaceOnUse" x="0" y="0" width="48" height="48">
<rect width="48" height="48" fill="#D9D9D9"/>
</mask>
<g mask="url(#mask0_3027_21326)">
<mask id="mask1_3027_21326" style="mask-type:alpha" maskUnits="userSpaceOnUse" x="0" y="0" width="48" height="48">
<rect width="48" height="48" fill="#D9D9D9"/>
</mask>
<g mask="url(#mask1_3027_21326)">
<path d="M21 31H27V26H32V20H27V15H21V20H16V26H21V31ZM24 44C19.3667 42.8333 15.5417 40.175 12.525 36.025C9.50833 31.875 8 27.2667 8 22.2V10L24 4L40 10V22.2C40 27.2667 38.4917 31.875 35.475 36.025C32.4583 40.175 28.6333 42.8333 24 44Z" fill="white"/>
</g>
</g>
</svg>

<svg width="48" height="48" viewBox="0 0 48 48" fill="none" xmlns="http://www.w3.org/2000/svg"><path d="M21 31h6v-5h5v-6h-5v-5h-6v5h-5v6h5zm3 13q-6.95-1.75-11.475-7.975T8 22.2V10l16-6 16 6v12.2q0 7.6-4.525 13.825T24 44" fill="#fff"/></svg>
